X:365
T: Donald na Greana
T: Domhnaill na Greine (Daniel of the Sun)
N: "Irish"
N: O'Farrell's Pocket Companion v.4 (Sky ed. p.157)
% There's another setting of this in PC Vol. I.
M: 6/8
L: 1/8
Q: 300
R: jig
K: F
d//e//f//g//|a/b/ag fdd| f/g/ag fdc| Add d2c| Add def/g/|
a/b/ag fdd| f/g/ag fdc| Acc c2d| Acc c2 :|
P:2
d/e/| f3g3| a/b/ag fdc| Add d2c| Add d2e|
f3g3| a/b/ag fdc| Acc c2d| Acc c2 :|
P:3
d| BBA/G/ AAG/F/| GGF/D/ Fdc| Add d2c| Add d2c|
BBA/G/ AAG/F/| GGF/D/ Fdc| Acc c2d| Acc c2 :|
P:4
d/e/| fdd gdd| aba/g/ fdc| Add d2c| Add d2e|
fdd gdd| aba/g/ fdc| Acc c2d| Acc c2 :|
P:5
A/G/| FDD GEE| AF/G/A/F/ cAG| Add d2c| Add d2A/G/|
FDD GEE| AF/G/A/F/ cAG| Acc c2d| Acc c2 :|
